!!!SOCIAL_FUNCTION:	klokali songs
!!!PDT:	1939
!!!OTL: No_49_Wand_Dance_Song.krn
!!!LANG: Non-Tone
!!!LING_GROUP: Wakashan
!!!REG: Pacific Northwest
**kern	**kern
*staff2	*staff1
=1-	=1-
*clefF4	*clefF4
*k[f#c#g#d#a#]	*k[f#c#g#d#a#]
*M3/4	*M3/4
16E\LL	2r
16E\	.
16E\	.
16E\JJ	.
16E\LL	.
16E\	.
16E\	.
16E\JJ	.
16E\LL	4d#\
16E\	.
16E\	.
16E\JJ	.
=2	=2
16E\LL	4.d#\
16E\	.
16E\	.
16E\JJ	.
16E\LL	.
16E\	.
16E\	16B\
16E\JJ	16r
16E\LL	4c#\
16E\	.
16E\	.
16E\JJ	.
=3	=3
16E\LL	4.B\
16E\	.
16E\	.
16E\JJ	.
16E\LL	.
16E\	.
16E\	8r
16E\JJ	.
16E\LL	4c##\
16E\	.
16E\	.
16E\JJ	.
=4	=4
16E\LL	4.d#\
16E\	.
16E\	.
16E\JJ	.
16E\LL	.
16E\	.
16E\	16B\
16E\JJ	16r
16E\LL	4c#\
16E\	.
16E\	.
16E\JJ	.
=5||	=5||
*M2/4	*M2/4
16E\LL	4.B\
16E\	.
16E\	.
16E\JJ	.
16E\LL	.
16E\	.
16E\	8r
16E\JJ	.
=6	=6
16E\LL	4d#\
16E\	.
16E\	.
16E\JJ	.
16E\LL	8c#\L
16E\	.
16E\	8B\J
16E\JJ	.
=7	=7
16E\LL	4B\
16E\	.
16E\	.
16E\JJ	.
16E\LL	4d#\
16E\	.
16E\	.
16E\JJ	.
=8||	=8
*M3/4	*
--d	=
*	*M3/4
16E\LL	8.c#\L
16E\	.
16E\	.
16E\JJ	16B\Jk
16E\LL	4B\
16E\	.
16E\	.
16E\JJ	.
16E\LL	8B\
16E\	.
16E\	8r
16E\JJ	.
=9	=9
16E\LL	4c#\
16E\	.
16E\	.
16E\JJ	.
16E\LL	8B\L
16E\	.
16E\	8d#\J
16E\JJ	.
16E\LL	8d#\L
16E\	.
16E\	8c#\J
16E\JJ	.
=10||	=10||
*M2/4	*M2/4
16E\LL	4.B\
16E\	.
16E\	.
16E\JJ	.
16E\LL	.
16E\	.
16E\	8r
16E\JJ	.
=11	=11
16E\LL	4d#\
16E\	.
16E\	.
16E\JJ	.
16E\LL	8c#\L
16E\	.
16E\	8B\J
16E\JJ	.
=12	=12
16E\LL	4B\
16E\	.
16E\	.
16E\JJ	.
16E\LL	4d#\
16E\	.
16E\	.
16E\JJ	.
=13||	=13||
*M3/4	*M3/4
16E\LL	4.c#\
16E\	.
16E\	.
16E\JJ	.
16E\LL	.
16E\	.
16E\	8B\
16E\JJ	.
16E\LL	8d#\L
16E\	.
16E\	8c#\J
16E\JJ	.
=14	=14
16E\LL	2B\
16E\	.
16E\	.
16E\JJ	.
16E\LL	.
16E\	.
16E\	.
16E\JJ	.
16E\LL	4r
16E\	.
16E\	.
16E\JJ	.
==	==
*-	*-
